X: 10162
M: C
L: 1/8
K: D
|:\
d2d2 d2g>f | e2e2 e2a>g | f2f2 e>de>f | d2d2 d2 :|
|:\
a2a2 (ba)(gf) | e4 a4 | d2c2 B2d2 | A2A>A A2f>e |\
d2d2 d2g>f | e2e2 e2a>g | f2f2 e>de>f  d2d2 d2z2 :|


